**kern	**kern
*part1	*part1
*staff2	*staff1
*I"Piano	*
*clefF4	*clefG2
*k[b-e-a-]	*k[b-e-a-]
=1	=1
2.D	4r
.	4Bn 4f 4g
.	4B 4f 4g
=	=
2.GG	4r
.	4Bn 4f 4g
.	4B 4f 4g
=	=
2.C	4r
.	4c 4e- 4g
.	4c 4e- 4g
=	=
2.E-	4r
.	4c 4e- 4g
.	4c 4e- 4g
=	=
4FF 4F	4r
4r	4B- 4d 4f
4r	4B- 4d 4f
=	=
4FF 4F	4r
4r	4An 4e- 4f
4r	4A 4e- 4f
=	=
4BBB- 4BB-	4d 4f
4r	(8cccL
.	8bb-
4r	8aa-
.	8ffJ)
=	=
2.r	(8ddL
.	8b-
.	8a-
.	8f
.	8d
.	8B-J)
=	=
*-	*-
!!!system-decoration: {(s1,s2)}
